modules/shop/images/manufacturers.svg

<?xml version="1.0" encoding="UTF-8" standalone="no"?>
<svg
   xmlns:dc="http://purl.org/dc/elements/1.1/"
   xmlns:cc="http://creativecommons.org/ns#"
   xmlns:rdf="http://www.w3.org/1999/02/22-rdf-syntax-ns#"
   xmlns:svg="http://www.w3.org/2000/svg"
   xmlns="http://www.w3.org/2000/svg"
   xmlns:sodipodi="http://sodipodi.sourceforge.net/DTD/sodipodi-0.dtd"
   xmlns:inkscape="http://www.inkscape.org/namespaces/inkscape"
   viewBox="0 0 48 24"
   enable-background="new 0 0 48 24"
   id="svg3119"
   version="1.1"
   inkscape:version="0.48.4 r9939"
   width="100%"
   height="100%"
   sodipodi:docname="manufacturers.svg">
  <metadata
     id="metadata3149">
    <rdf:RDF>
      <cc:Work
         rdf:about="">
        <dc:format>image/svg+xml</dc:format>
        <dc:type
           rdf:resource="http://purl.org/dc/dcmitype/StillImage" />
      </cc:Work>
    </rdf:RDF>
  </metadata>
  <defs
     id="defs3147" />
  <sodipodi:namedview
     pagecolor="#ffffff"
     bordercolor="#666666"
     borderopacity="1"
     objecttolerance="10"
     gridtolerance="10"
     guidetolerance="10"
     inkscape:pageopacity="0"
     inkscape:pageshadow="2"
     inkscape:window-width="1596"
     inkscape:window-height="845"
     id="namedview3145"
     showgrid="false"
     inkscape:zoom="19.06242"
     inkscape:cx="18.330332"
     inkscape:cy="12.975675"
     inkscape:window-x="0"
     inkscape:window-y="26"
     inkscape:window-maximized="0"
     inkscape:current-layer="svg3119" />
  <symbol
     viewBox="-6 -5 12 11.3"
     id="symbol3121">
    <path
       fill="#fff"
       d="M2-2.7C2-2.9,2.2-3,2.5-3h1C3.8-3,4-2.9,4-2.7V2h1.5L3,6.3L0.5,2H2V-2.7z"
       id="path3123" />
  </symbol>
  <path
     fill="#939393"
     d="m13.4 24l-11.4-11.4v-6.4l4.6-3.9 5.9-.9 11.5 12c0 .5 0 .9 0 1.4l-9.2 9.2c-.6 0-.9 0-1.4 0"
     id="path3125" />
  <path
     fill="#5a5a5a"
     d="m12.4 23.5l-12.4-12.1v-6.6l5.9-4.8h4.8l12.3 12.9c0 .6 0 .9 0 1.4l-9.2 9.2c-.5.1-.8.1-1.4 0"
     id="path3127" />
  <path
     fill="#d6d6d6"
     d="M1.1,10.7l0-5.6L6,1h4.3l10.3,11c0,0.5,0,0.8,0,1.3L12.9,21c-0.6,0-0.9,0-1.4,0L1.1,10.7z"
     id="path3129" />
  <circle
     fill="#5a5a5a"
     cx="6.2"
     cy="6.7"
     r="2.7"
     id="circle3131" />
  <circle
     fill="#fff"
     cx="6.2"
     cy="6.7"
     r="1.7"
     id="circle3133" />
  <g
     id="g3151"
     transform="translate(1,0)">
    <path
       id="path3135"
       d="M 36.4,24 25,12.6 V 6.2 l 4.6,-3.9 5.9,-0.9 11.5,12 c 0,0.5 0,0.9 0,1.4 L 37.8,24 c -0.6,0 -0.9,0 -1.4,0"
       inkscape:connector-curvature="0"
       style="fill:#939393" />
    <path
       id="path3137"
       d="M 35.4,23.5 23,11.4 V 4.8 L 28.9,0 h 4.8 L 46,12.9 c 0,0.6 0,0.9 0,1.4 l -9.2,9.2 c -0.5,0.1 -0.8,0.1 -1.4,0"
       inkscape:connector-curvature="0"
       style="fill:#ac382e" />
    <path
       id="path3139"
       d="M 24.1,10.7 V 5.1 L 29,1 h 4.3 l 10.3,11 c 0,0.5 0,0.8 0,1.3 L 35.9,21 c -0.6,0 -0.9,0 -1.4,0 L 24.1,10.7"
       inkscape:connector-curvature="0"
       style="fill:#e74c3c" />
    <circle
       id="circle3141"
       r="2.7"
       cy="6.6999998"
       cx="29.200001"
       sodipodi:cx="29.200001"
       sodipodi:cy="6.6999998"
       sodipodi:rx="2.7"
       sodipodi:ry="2.7"
       style="fill:#ffffff"
       d="m 31.900001,6.6999998 c 0,1.4911689 -1.208831,2.7000001 -2.7,2.7000001 -1.491169,0 -2.7,-1.2088312 -2.7,-2.7000001 0,-1.4911688 1.208831,-2.7 2.7,-2.7 1.491169,0 2.7,1.2088312 2.7,2.7 z" />
    <circle
       id="circle3143"
       r="1.7"
       cy="6.6999998"
       cx="29.200001"
       sodipodi:cx="29.200001"
       sodipodi:cy="6.6999998"
       sodipodi:rx="1.7"
       sodipodi:ry="1.7"
       style="fill:#939393"
       d="m 30.900001,6.6999998 c 0,0.9388841 -0.761116,1.7000001 -1.7,1.7000001 -0.938884,0 -1.7,-0.761116 -1.7,-1.7000001 0,-0.9388841 0.761116,-1.7 1.7,-1.7 0.938884,0 1.7,0.7611159 1.7,1.7 z" />
  </g>
</svg>

<svg id="svg3119" enable-background="new 0 0 48 24" viewBox="0 0 48 24" xmlns="http://www.w3.org/2000/svg"><defs id="defs3147"><symbol id="symbol3121" viewBox="-6 -5 12 11.3"><path id="path3123" d="m2-2.7c0-.2.2-.3.5-.3h1c .3 0 .5.1.5.3v4.7h1.5l-2.5 4.3-2.5-4.3h1.5z" fill="#fff"/></symbol></defs><path id="path3125" d="m13.4 24l-11.4-11.4v-6.4l4.6-3.9 5.9-.9 11.5 12c0 .5 0 .9 0 1.4l-9.2 9.2c-.6 0-.9 0-1.4 0" fill="#939393"/><path id="path3127" d="m12.4 23.5l-12.4-12.1v-6.6l5.9-4.8h4.8l12.3 12.9c0 .6 0 .9 0 1.4l-9.2 9.2c-.5.1-.8.1-1.4 0" fill="#5a5a5a"/><path id="path3129" d="m1.1 10.7v-5.6l4.9-4.1h4.3l10.3 11c0 .5 0 .8 0 1.3l-7.7 7.7c-.6 0-.9 0-1.4 0z" fill="#d6d6d6"/><circle id="circle3131" cx="6.2" cy="6.7" fill="#5a5a5a" r="2.7"/><circle id="circle3133" cx="6.2" cy="6.7" fill="#fff" r="1.7"/><g id="g3151" transform="translate(1)"><path id="path3135" d="m36.4 24l-11.4-11.4v-6.4l4.6-3.9 5.9-.9 11.5 12c0 .5 0 .9 0 1.4l-9.2 9.2c-.6 0-.9 0-1.4 0" fill="#939393"/><path id="path3137" d="m35.4 23.5l-12.4-12.1v-6.6l5.9-4.8h4.8l12.3 12.9c0 .6 0 .9 0 1.4l-9.2 9.2c-.5.1-.8.1-1.4 0" fill="#ac382e"/><path id="path3139" d="m24.1 10.7v-5.6l4.9-4.1h4.3l10.3 11c0 .5 0 .8 0 1.3l-7.7 7.7c-.6 0-.9 0-1.4 0z" fill="#e74c3c"/><circle id="circle3141" cx="29.200001" cy="6.6999998" fill="#fff" r="2.7"/><circle id="circle3143" cx="29.200001" cy="6.6999998" fill="#939393" r="1.7"/></g></svg>
